X: 22
T: No_119_Hinata_Dance_Song_(o).krn
N: Derived from No_119_Hinata_Dance_Song_(o).krn
%%abc-version 2.0
%%abcx-abcm2ps-target-version 5.9.1 (29 Sep 2008)
%%abc-creator hum2abc beta
%%abcx-conversion-date 2019/03/15 08:38:45
%%humdrum-veritas 1862552058
%%humdrum-veritas-data 1495619269
%%linebreak <none>
%%barnumbers 0
L: 1/8
M: 2/4
K: F clef=bass
[K:clef=bass][M:2/4]z3/ G,/ F,3/C/ ]|:  
C2-CB, | 
A,/A,/A,/A,/ C3/B,/ | 
(3A,B,A, (B,3/A,/) | 
(3F,F,F, F,3/A,/ ||  
[M:7/8]F,F,F,/ z/ B,A,(B,3/A,/) ||  
[M:2/4](3F,F,F, F,3/F,/ | 
(3C,F,F,F,2 | 
(3z F,F, F,3/A,/ ||  
[M:7/8]F,F,F,/ z/ B,A,(B,3/A,/) ||  
[M:2/4](3F,F,F, F,3/F,/ | 
(3C,F,F,F,2 ||  
[M:3/4](3z F,F, F,3/F,/ F,C/C/ :|]  
[M:2/4](3z F,F,F,2 |]  



